img/phone_white.svg

<svg width="16" height="20" viewBox="0 0 16 20" fill="none" xmlns="http://www.w3.org/2000/svg">
<path d="M5.18521 0.00740898C4.84543 -0.0165329 4.49728 0.0171047 4.15588 0.114821L2.93399 0.465376C1.63196 0.838347 0.614628 1.83895 0.270437 3.10186C-0.493802 5.91048 0.380458 9.2349 2.65574 12.977C4.92782 16.7139 7.51678 19.0889 10.4407 19.864C11.7575 20.2131 13.1776 19.8797 14.175 18.9823L15.1045 18.1474C16.1446 17.212 16.2997 15.6541 15.4594 14.5471L14.1165 12.7807C13.3967 11.8337 12.1278 11.4305 10.9609 11.77L8.85995 12.3794C8.77175 12.4043 8.5607 12.288 8.37704 12.1343L8.37603 12.1333C8.04891 11.8578 7.59568 11.3009 7.11079 10.5045V10.5035C6.59086 9.64827 6.3691 9.08891 6.28007 8.75859C6.191 8.42811 6.21261 8.38791 6.22563 8.27621C6.2324 8.22047 6.25974 8.16882 6.30628 8.12778L6.30729 8.12681L7.87397 6.73923C8.77154 5.94448 9.04251 4.67442 8.53633 3.60572L7.59168 1.60981V1.60883C7.14694 0.669863 6.20427 0.0792148 5.18521 0.00740898ZM5.0733 1.50337C5.54725 1.53767 5.98369 1.81302 6.18329 2.23475L7.12894 4.23067C7.35779 4.71384 7.24303 5.26674 6.82952 5.63289L5.26284 7.01948C4.94167 7.30312 4.73628 7.68983 4.68718 8.10728V8.10825C4.67439 8.21803 4.64416 8.62626 4.78195 9.13746C4.91973 9.64866 5.20421 10.3248 5.77599 11.2652H5.777C6.31051 12.1416 6.81474 12.8075 7.36081 13.267H7.36182C7.53916 13.4157 8.28241 14.1056 9.29345 13.8197L9.29648 13.8187L11.4066 13.2064C11.9545 13.047 12.5403 13.2374 12.8694 13.6703L14.2123 15.4367C14.5925 15.9385 14.5261 16.6206 14.051 17.0479L13.1214 17.8838C12.527 18.4188 11.6442 18.6277 10.849 18.4169C8.48528 17.7902 6.14622 15.7617 3.99054 12.2163C1.83186 8.666 1.1567 5.72957 1.76755 3.48464C1.96948 2.74373 2.58816 2.1287 3.37355 1.90373L4.59443 1.55317C4.75347 1.50765 4.91532 1.49194 5.0733 1.50337Z" fill="white"/>
</svg>

<svg xmlns="http://www.w3.org/2000/svg" width="16" height="20" fill="none"><path fill="#fff" d="M5.185.007c-.34-.024-.688.01-1.03.108l-1.221.35C1.632.838.614 1.84.27 3.102c-.764 2.808.11 6.133 2.386 9.875 2.272 3.737 4.86 6.112 7.785 6.887 1.316.35 2.737.016 3.734-.882l.93-.835a2.665 2.665 0 0 0 .354-3.6l-1.342-1.766c-.72-.947-1.99-1.35-3.156-1.011l-2.101.61c-.088.024-.3-.092-.483-.246h-.001c-.327-.276-.78-.833-1.265-1.63-.52-.856-.742-1.415-.83-1.745-.09-.33-.068-.371-.055-.483a.234.234 0 0 1 .08-.148l.001-.001 1.567-1.388a2.659 2.659 0 0 0 .662-3.133L7.592 1.61v-.001C7.147.669 6.204.079 5.185.007Zm-.112 1.496c.474.035.91.31 1.11.732L7.13 4.23a1.172 1.172 0 0 1-.3 1.402L5.264 7.019c-.321.284-.527.67-.576 1.088v.001a2.89 2.89 0 0 0 .095 1.03c.138.51.422 1.187.994 2.127h.001c.534.877 1.038 1.542 1.584 2.002.178.149.921.839 1.932.553l.003-.001 2.11-.613a1.363 1.363 0 0 1 1.463.464l1.343 1.767c.38.502.314 1.184-.161 1.61l-.93.837c-.594.535-1.477.744-2.272.533-2.364-.627-4.703-2.655-6.858-6.2C1.83 8.665 1.157 5.73 1.768 3.484c.201-.741.82-1.356 1.606-1.581l1.22-.35c.16-.046.321-.062.48-.05Z"/></svg>
